X:173
T:Paddy's Green Shore
M:3/4
L:1/8
K:G
D2|:A3B c2|A4D2|A4F2|G2F2D2|
  |C4B,>C|D4E2|D6|1D4D2:|2D4d2|
  |:B3A G2|A3B c2|d3c B2|A4d2|
  |c3B A2|G2D2E2|1C4d2:|2C4D2|
  |:A3B c2|A4D2|A4F2|G2F2D2|
  |C4B,>C|D4E2|1D6|D4D2:|2D6-|D6|
